X:1
T:I Am Thinking of Home
T:I Am Thinking of Home
T:Robert Lowry
T:Mary F. Kirby, 1868
T:Public Domain Courtesy of the Cyber Hymnal™
T:Public Domain Courtesy of the Cyber Hymnal™
C:Robert Lowry
Z:Public Domain
Z:Courtesy of the Cyber Hymnal™
%%score ( 1 2 ) ( 3 4 )
L:1/8
Q:1/4=98
M:4/4
K:Eb
V:1 treble 
V:2 treble 
V:3 bass 
V:4 bass 
V:1
 [EG][FA] | [GB]2 [GB][GB] [GB]2 [EG][GB] | [Ac]2 [Ac]2 [Ac]2 [GB][GB] | %3
w: 1.~I am|think- ing of home, of my|Fa- ther’s house, Where the|
w: 2.~I am|think- ing of home, of the|loved ones there, Dear- est|
w: 3.~I am|think- ing of home; I am|home- sick now, And my|
w: 4.~I am|think- ing of home! yes, of|“home, sweet home”; May we|
 [Ac]2 [Ac][Ac] [GB]2 ([GB][EG]) | [DF]6 ([EG][FA]) | [GB]2 [GB][GB] [GB]2 [EG][GB] | %6
w: ma- ny bright man- sions *|be; Of~the *|ci- ty whose streets are all|
w: friends who have gone be- *|fore; With *|whom we went down to the|
w: spir- it doth long to *|be In~the *|far bet- ter land, where the|
w: all in that home u- *|nite With~the *|white cov- ered throng, and ex-|
 [Ac]2 [Ac][Ac] [Ac]2 [GB][GB] | [Ac]2 [Ac]2 [Ae]2 [Ae][Ac] | [GB]2 [GB][EG] [GB]2 [EG][EF] | %9
w: cov- ered with gold, Of its|jas- per walls pure and|fair to be- hold, Which the|
w: death- riv- er’s side, And so|sad- ly thought as we|watched by the tide, Of the|
w: saints ev- er sing Of the|love of Christ, their Re-|deem- er and king, And of|
w: ult- ing- ly raise To the|tri- une God, sweet- est|an- thems of praise, Sing- ing|
 E2 EE [DF]2 E[DF] | ([EG]4 !fermata![GB]2) x2 ||"^Refrain" (GF) | .E2 ([DF][EG]) .E2 ([EG][GB]) | %13
w: right- eous a- lone ev- er|see. *|||
w: thrice hap- py morn- ings of|yore. *|Oh *|home! sweet * home! sweet *|
w: mer- cy so cost- ly, so|free. *|||
w: glo- ry, and hon- or, and|might. *|||
 [GB]6 [GB][GB] | [Ac]2 [Ac][Ac] [GB] [GB]2 [EG] | [DF]6 ([EG][FA]) | %16
w: |||
w: home! I am|think- ing and long- ing for|home; Be- *|
w: |||
w: |||
 [GB][EB][FB][FB] [GB]2 [EG][GB] | [Ac]2 [Ac]2 !fermata![Ae]2 [Ad][Ac] | %18
w: ||
w: yond the pearl- y gate, Ma- ny|man- sions wait For the|
w: ||
w: ||
 [Ac][GB][GB][EG] ([EG][FA]) [DF]2 | E6 |] %20
w: ||
w: wea- ry ones who jour- * ney|home.|
w: ||
w: ||
V:2
 x2 | x8 | x8 | x8 | x8 | x8 | x8 | x8 | x8 | E2 EE x E x2 | x8 || E2 | E2 E2 x4 | x8 | x8 | x8 | %16
 x8 | x8 | x8 | E6 |] %20
V:3
 [E,B,][E,B,] | [E,E]2 [E,E][E,E] [E,E]2 [E,B,][E,E] | [A,E]2 [A,E]2 [A,E]2 [E,E][E,E] | %3
w: ~ ~|~ ~ ~ ~ ~ ~|~ ~ ~ ~ ~|
 [A,E]2 [A,E][A,E] [E,E]2 (EB,) | [B,,B,]6 ([E,B,][E,B,]) | [E,E]2 [E,E][E,E] [E,E]2 [E,B,][E,E] | %6
w: ~ ~ ~ ~ ~ *|~ ~ *|~ ~ ~ ~ ~ ~|
 [A,E]2 [A,E][A,E] [A,E]2 [E,E][E,E] | [A,E]2 [A,E]2 [A,C]2 [A,C][A,E] | %8
w: ~ ~ ~ ~ ~ ~|~ ~ ~ ~ ~|
 [E,E]2 [E,E][E,B,] [E,E]2 [E,B,][E,A,] | [E,G,]2 [E,G,][E,G,] [B,,B,]2 [B,,G,][B,,B,] | B,4 x4 || %11
w: ~ ~ ~ ~ ~ ~|~ ~ ~ ~ ~ ~|~|
 (B,A,) | [E,G,]2 (A,B,) [E,G,]2 (B,E) | [E,E]2 [E,E]2 [E,E]2 [E,E][E,E] | %14
w: ~ *|~ ~ * Oh, home, *|sweet home! * * *|
 [A,E]2 [A,E][A,E] [E,E] [E,B,]2 [E,B,] | [B,,B,]6 [E,B,]2 | %16
w: ||
 [E,E][G,E][B,D][B,,D] [E,E]2 [E,B,][E,E] | [A,E]2 [A,E]2 !fermata![A,C]2 [A,,E][A,,E] | %18
w: ||
 [B,,E][B,,E][B,,C][B,,C] [B,,C]2 [B,,C]2 | [E,G,]6 |] %20
w: ||
V:4
 x2 | x8 | x8 | x6 E,2 | x8 | x8 | x8 | x8 | x8 | x8 | E,6 E2 || E,2 | x2 B,,2 x E,2 x | x8 | x8 | %15
 x8 | x8 | x8 | x8 | x6 |] %20

